dist/img/svg/icon-ok-2.svg

<svg width="30" height="30" viewBox="0 0 30 30" fill="none" xmlns="http://www.w3.org/2000/svg">
<circle cx="15" cy="15" r="15" fill="#EE7221"/>
<path d="M14.0163 19.0871C12.4671 18.9254 11.0702 18.5436 9.87425 17.6075C9.72586 17.491 9.57265 17.3787 9.43723 17.2487C8.91378 16.7455 8.86103 16.1693 9.27524 15.5755C9.62958 15.0673 10.2244 14.9314 10.8427 15.2231C10.9624 15.2797 11.0765 15.3503 11.1857 15.4261C13.4146 16.9588 16.4764 17.0011 18.7136 15.495C18.9353 15.3249 19.1722 15.1863 19.4468 15.1155C19.9807 14.9783 20.4786 15.1745 20.7652 15.6421C21.0925 16.176 21.0883 16.6971 20.685 17.1117C20.0663 17.7472 19.3223 18.207 18.4955 18.5279C17.7138 18.8312 16.8575 18.9839 16.0101 19.0853C16.138 19.2246 16.1982 19.293 16.2782 19.3735C17.4289 20.5306 18.5847 21.6828 19.7316 22.8435C20.1224 23.2389 20.204 23.7293 19.9889 24.1893C19.7536 24.692 19.227 25.0227 18.7107 24.9874C18.3835 24.9647 18.1284 24.8018 17.9017 24.5732C17.0334 23.6987 16.1486 22.8403 15.2978 21.9493C15.0502 21.6902 14.9311 21.7392 14.7126 21.9641C13.839 22.8642 12.9512 23.7505 12.0581 24.6317C11.6571 25.0274 11.1799 25.0986 10.7148 24.8726C10.2204 24.6327 9.90586 24.1277 9.93013 23.6202C9.94688 23.2769 10.1156 23.0146 10.351 22.7794C11.4898 21.6414 12.6255 20.5004 13.7616 19.3605C13.8367 19.2847 13.9068 19.2042 14.0163 19.0871Z" fill="white"/>
<path d="M14.96 15.1233C12.1962 15.1138 9.92994 12.8208 9.94606 10.0504C9.96196 7.24946 12.2297 4.99227 15.0207 5.00002C17.8174 5.00756 20.0621 7.29722 20.0481 10.1273C20.0339 12.892 17.7519 15.1329 14.96 15.1233ZM17.4718 10.0571C17.467 8.68158 16.3724 7.58649 15.0006 7.58524C13.6174 7.58377 12.5129 8.69875 12.5236 10.0869C12.5338 11.4572 13.6379 12.5445 15.0134 12.5395C16.3847 12.5347 17.4765 11.4325 17.4718 10.0571Z" fill="white"/>
</svg>

<svg width="30" height="30" viewBox="0 0 30 30" fill="none" xmlns="http://www.w3.org/2000/svg"><circle cx="15" cy="15" r="15" fill="#EE7221"/><path d="M14.016 19.087c-1.549-.162-2.946-.543-4.142-1.48-.148-.116-.301-.228-.437-.358-.523-.503-.576-1.08-.162-1.673.355-.509.95-.645 1.568-.353.12.057.233.127.343.203 2.229 1.533 5.29 1.575 7.528.069a2.04 2.04 0 01.733-.38c.534-.137 1.032.06 1.318.527.328.534.323 1.055-.08 1.47-.619.635-1.363 1.095-2.19 1.416-.781.303-1.637.456-2.485.557.128.14.188.208.268.288 1.15 1.158 2.307 2.31 3.454 3.47.39.396.472.886.257 1.346-.235.503-.762.834-1.278.798-.327-.022-.583-.185-.81-.414-.868-.874-1.752-1.733-2.603-2.624-.248-.259-.367-.21-.585.015-.874.9-1.762 1.787-2.655 2.668-.4.395-.878.467-1.343.24-.495-.24-.81-.744-.785-1.252.017-.343.186-.605.421-.84 1.139-1.139 2.274-2.28 3.41-3.42.076-.075.146-.156.255-.273z" fill="#fff"/><path d="M14.96 15.123c-2.764-.01-5.03-2.302-5.014-5.073.016-2.8 2.284-5.058 5.075-5.05 2.796.008 5.041 2.297 5.027 5.127-.014 2.765-2.296 5.006-5.088 4.996zm2.512-5.066A2.464 2.464 0 0015 7.585a2.468 2.468 0 00-2.477 2.502 2.464 2.464 0 002.49 2.453 2.46 2.46 0 002.458-2.483z" fill="#fff"/></svg>
